src/actions/16/view-financial-account-liability-closed.svg

<svg version="1.1" viewBox="0 0 16 16" xmlns="http://www.w3.org/2000/svg">
    <style id="current-color-scheme" type="text/css">.ColorScheme-Text { color: #363636; }.ColorScheme-NegativeText { color: #d19494; }</style>
    <path class="ColorScheme-Text" d="m11.5 2c-1.380712 0-2.5 1.1192881-2.5 2.5s1.119288 2.5 2.5 2.5 2.5-1.1192881 2.5-2.5-1.119288-2.5-2.5-2.5zm-10.5 4v1h3.8789062l-1-1h-2.8789062zm1 2c-0.365911 0-0.70494 0.1057637-1 0.2773438v1.7226562c0-0.5522847 0.4477153-1 1-1s1 0.4477153 1 1c0 0.552285-0.4477153 1-1 1s-1-0.447715-1-1v1.722656c0.29506 0.17158 0.634089 0.277344 1 0.277344 1.1045701 0 2-0.89543 2-2 0-1.104569-0.8954299-2-2-2zm9.646484 0c-0.434953 4.07e-4 -0.850623 0.1108288-1.242187 0.2832031l0.775391 0.7753907c0.152387-0.0350931 0.307559-0.0583257 0.466796-0.0585938 1.05817 0.0017815 2.000793 0.8028154 2.353516 2h-0.878906l1 1h1.02539c0-2.2091399-1.567004-4.0000013-3.5-4zm-4.646484 1.1210938v2.8789062h-1v1h-5v1h7v-3.878906l-1-1.0000002zm2 2.0000002v0.878906h0.8789062l-0.8789062-0.878906z" fill="currentColor"/>
    <path class="ColorScheme-NegativeText" d="M 2.7070315,1.98802 2.0000002,2.6950512 13.292969,13.98802 14,13.255598 Z" fill="currentColor"/>
</svg>

<svg xmlns="http://www.w3.org/2000/svg" viewBox="0 0 16 16">
    <path fill="currentColor" d="M11.5 2a2.5 2.5 0 1 0 0 5 2.5 2.5 0 0 0 0-5zM1 6v1h3.879l-1-1H1zm1 2c-.366 0-.705.106-1 .277V10a1 1 0 1 1 2 0 1 1 0 0 1-2 0v1.723c.295.171.634.277 1 .277a2 2 0 1 0 0-4zm9.646 0c-.434 0-.85.11-1.242.283l.776.776A2.09 2.09 0 0 1 11.646 9c1.059.002 2.001.803 2.354 2h-.879l1 1h1.025c0-2.21-1.567-4-3.5-4zM7 9.121V12H6v1H1v1h7v-3.879l-1-1zm2 2V12h.879L9 11.121z" style="color:#050505;opacity:.7"/>
    <path fill="currentColor" d="M2.707 1.988 2 2.695l11.293 11.293.707-.732Z" style="color:#d98c8c"/>
</svg>
